X:1
T:Little Blossom
M:6/8
L:1/8
K:Bb
 F2| D3/2 D/2 DD-C D| F3 C2 D| EEE EDC| F3- F2 F| DDD DCD| F3 C2 D|\
 EEE EFE| D3- D2||
